img/svg/tab-icons/handle-care-ico.svg

<svg width="24" height="24" viewBox="0 0 24 24" fill="#E0E0E0" xmlns="http://www.w3.org/2000/svg">
<path d="M23.1091 19.3125C23.627 19.3125 24.0466 18.8928 24.0466 18.375V17.3961C24.0466 15.1703 22.2355 13.3594 20.0095 13.3594H19.1978C19.302 13.0659 19.3591 12.7505 19.3591 12.4219V4.73438C19.3591 4.21655 18.9395 3.79688 18.4217 3.79688H15.6092V2.8125C15.6092 1.2616 14.3474 0 12.7967 0C11.2458 0 9.98417 1.2616 9.98417 2.8125V3.79688H7.17168C6.65386 3.79688 6.23418 4.21655 6.23418 4.73438V12.4219C6.23418 12.6711 6.26714 12.9128 6.3283 13.1429L4.81604 11.761C4.28137 11.243 3.57623 10.9612 2.83283 10.9688C2.08155 10.9759 1.37806 11.2751 0.851813 11.8112C0.325569 12.3475 0.0397425 13.0565 0.0468836 13.8076C0.0538416 14.5589 0.353035 15.2624 0.88935 15.7886C0.895758 15.795 0.90235 15.8013 0.908942 15.8073L5.68359 20.228C6.92779 21.4308 8.37212 22.37 9.9763 23.0193C11.584 23.67 13.2784 24 15.0128 24H23.1091C23.627 24 24.0466 23.5803 24.0466 23.0625C24.0466 22.5447 23.627 22.125 23.1091 22.125H15.0128C11.9985 22.125 9.14574 20.9702 6.97997 18.8734C6.97503 18.8687 6.9699 18.8639 6.96477 18.8591L2.19452 14.4424C2.02076 14.2679 1.92408 14.0367 1.9217 13.79C1.91932 13.5397 2.01471 13.3033 2.19013 13.1246C2.36554 12.9459 2.6001 12.8461 2.8504 12.8438C3.09998 12.8423 3.3371 12.9368 3.51581 13.1122C3.52386 13.1201 3.53192 13.1276 3.54016 13.1351L8.95146 18.0798C9.46562 18.6356 10.2004 18.9844 11.0154 18.9844H15.7029C16.2207 18.9844 16.6404 18.5647 16.6404 18.0469C16.6404 17.5291 16.2207 17.1094 15.7029 17.1094H11.0154C10.8219 17.1094 10.6419 17.0504 10.4923 16.9495C10.4868 16.944 10.4817 16.9382 10.476 16.9329L10.2857 16.7591C10.1559 16.5981 10.0779 16.3942 10.0779 16.1719C10.0779 15.655 10.4985 15.2344 11.0154 15.2344H20.0095C21.2017 15.2344 22.1716 16.2041 22.1716 17.3961V18.375C22.1716 18.8928 22.5913 19.3125 23.1091 19.3125ZM11.8592 2.8125C11.8592 2.29559 12.2798 1.875 12.7967 1.875C13.3136 1.875 13.7342 2.29559 13.7342 2.8125V3.79688H11.8592V2.8125ZM11.0154 13.3594H9.04668C8.52977 13.3594 8.10918 12.9388 8.10918 12.4219V5.67188H9.98417V6.65625C9.98417 7.17407 10.4039 7.59375 10.9217 7.59375C11.4395 7.59375 11.8592 7.17407 11.8592 6.65625V5.67188H13.7342V6.65625C13.7342 7.17407 14.1538 7.59375 14.6717 7.59375C15.1895 7.59375 15.6092 7.17407 15.6092 6.65625V5.67188H17.4842V12.4219C17.4842 12.9388 17.0636 13.3594 16.5467 13.3594H11.0154Z"/>
</svg>

<svg width="24" height="24" fill="#E0E0E0" xmlns="http://www.w3.org/2000/svg"><path d="M23.11 19.313c.517 0 .937-.42.937-.938v-.979a4.042 4.042 0 00-4.038-4.037h-.811c.104-.293.161-.608.161-.937V4.734a.937.937 0 00-.937-.937h-2.813v-.985A2.816 2.816 0 0012.797 0a2.816 2.816 0 00-2.813 2.813v.984H7.172a.937.937 0 00-.938.937v7.688c0 .25.033.49.094.72l-1.512-1.381a2.794 2.794 0 00-1.983-.792 2.795 2.795 0 00-1.981.842 2.794 2.794 0 00-.805 1.997 2.793 2.793 0 00.862 2l4.775 4.42a13.36 13.36 0 004.292 2.791c1.608.651 3.302.981 5.037.981h8.096a.937.937 0 100-1.875h-8.096a11.491 11.491 0 01-8.033-3.252l-.015-.014-4.77-4.417a.931.931 0 01-.273-.652.931.931 0 01.268-.665.936.936 0 011.35.01l5.411 4.945a2.805 2.805 0 002.064.904h4.688a.937.937 0 100-1.875h-4.688a.933.933 0 01-.523-.16l-.016-.016-.19-.174a.939.939 0 01.73-1.525h8.993c1.193 0 2.163.97 2.163 2.162v.979c0 .518.42.938.937.938zm-11.25-16.5a.939.939 0 011.874 0v.984H11.86v-.985zm-.845 10.546H9.047a.939.939 0 01-.938-.937v-6.75h1.875v.984a.937.937 0 101.875 0v-.984h1.875v.984a.937.937 0 101.875 0v-.984h1.875v6.75c0 .517-.42.937-.937.937h-5.532z"/></svg>
